remix/Media/video-upload-line.svg

<svg viewBox="0 0 24 24" fill="currentColor" xmlns="http://www.w3.org/2000/svg"><path d="M16 4C16.5523 4 17 4.44772 17 5V9.2L22.2133 5.55071C22.4395 5.39235 22.7513 5.44737 22.9096 5.6736C22.9684 5.75764 23 5.85774 23 5.96033V18.0397C23 18.3158 22.7761 18.5397 22.5 18.5397C22.3974 18.5397 22.2973 18.5081 22.2133 18.4493L17 14.8V19C17 19.5523 16.5523 20 16 20H2C1.44772 20 1 19.5523 1 19V5C1 4.44772 1.44772 4 2 4H16ZM15 6H3V18H15V6ZM9 8L13 12H10V16H8V12H5L9 8ZM21 8.84131L17 11.641V12.359L21 15.1587V8.84131Z"/></svg>

<svg viewBox="0 0 24 24" xmlns="http://www.w3.org/2000/svg"><path fill="none" d="M0 0h24v24H0Z"/><path d="M16 4c.55 0 1 .44 1 1v4.2l5.21-3.65c.22-.16.53-.11.69.12 .05.08.09.18.09.28v12.08c0 .27-.23.5-.5.5 -.11 0-.21-.04-.29-.09l-5.22-3.65v4.2c0 .55-.45 1-1 1h-14c-.552 0-1-.45-1-1v-14c0-.56.44-1 1-1h14Zm-1 2H3v12h12V6ZM9 8l4 4h-3v4H8v-4H5l4-4Zm12 .84l-4 2.8v.718l4 2.8V8.83Z"/></svg>
